X:1
T:Partition sans titre
C:Compositeur / Arrangeur
L:1/8
M:3/4
I:linebreak $
K:G
V:1 treble nm="Violon" snm="Vln."
V:1
"D" FA de fe | dA FA dB |"Am" cd ef gf | ed cB AG |"D" FA de fe | dA FA dB |"Am" cd ed cB |1 %7
 PB2 A3 A :|2 PB2 A3 d |:"G" Bd AB GB | d^c BA GF |"Am" E^C EG B^c |"D" dA FA dB |"C" cd ed cB |1 %14
"D" AG F3 d :|2"D" A6 |] %16
